Numix/64/emotes/face-glasses.svg

<?xml version="1.0" encoding="UTF-8" standalone="no"?>
<svg
   xmlns:dc="http://purl.org/dc/elements/1.1/"
   xmlns:cc="http://creativecommons.org/ns#"
   xmlns:rdf="http://www.w3.org/1999/02/22-rdf-syntax-ns#"
   xmlns:svg="http://www.w3.org/2000/svg"
   xmlns="http://www.w3.org/2000/svg"
   xmlns:sodipodi="http://sodipodi.sourceforge.net/DTD/sodipodi-0.dtd"
   xmlns:inkscape="http://www.inkscape.org/namespaces/inkscape"
   width="64px"
   height="64px"
   viewBox="0 0 48 48"
   version="1.1"
   id="svg454"
   inkscape:version="0.91 r"
   sodipodi:docname="face-glasses.svg">
  <metadata
     id="metadata475">
    <rdf:RDF>
      <cc:Work
         rdf:about="">
        <dc:format>image/svg+xml</dc:format>
        <dc:type
           rdf:resource="http://purl.org/dc/dcmitype/StillImage" />
      </cc:Work>
    </rdf:RDF>
  </metadata>
  <defs
     id="defs473" />
  <sodipodi:namedview
     pagecolor="#ffffff"
     bordercolor="#666666"
     borderopacity="1"
     objecttolerance="10"
     gridtolerance="10"
     guidetolerance="10"
     inkscape:pageopacity="0"
     inkscape:pageshadow="2"
     inkscape:window-width="640"
     inkscape:window-height="480"
     id="namedview471" />
  <g
     id="surface1">
    <path
       style=" stroke:none;fill-rule:nonzero;fill:rgb(100%,85.490196%,36.862745%);fill-opacity:1;"
       d="M 42 24 C 42 32.5625 33.941406 39.5 24 39.5 C 14.058594 39.5 6 32.5625 6 24 C 6 15.441406 14.058594 8.5 24 8.5 C 33.941406 8.5 42 15.441406 42 24 Z M 42 24 "
       id="path457" />
    <path
       style=" stroke:none;fill-rule:nonzero;fill:rgb(39.607843%,39.607843%,39.607843%);fill-opacity:1;"
       d="M 17.097656 28 C 17.667969 30.886719 20.585938 33 24 33 C 27.414062 32.996094 30.324219 30.882812 30.894531 28 L 29.933594 28 C 29.507812 29.71875 26.980469 30.996094 24 31 C 21.019531 30.996094 18.492188 29.71875 18.066406 28 Z M 17.097656 28 "
       id="path459" />
    <path
       style=" stroke:none;fill-rule:nonzero;fill:rgb(49.803922%,90.196078%,93.72549%);fill-opacity:1;"
       d="M 12.5 17.5 L 21.5 17.5 C 21.777344 17.5 22 17.722656 22 18 L 22 24 C 22 24.277344 21.777344 24.5 21.5 24.5 L 12.5 24.5 C 12.222656 24.5 12 24.277344 12 24 L 12 18 C 12 17.722656 12.222656 17.5 12.5 17.5 Z M 12.5 17.5 "
       id="path461" />
    <path
       style="fill:none;stroke-width:2;stroke-linecap:square;stroke-linejoin:miter;stroke:rgb(21.960784%,21.960784%,21.960784%);stroke-opacity:1;stroke-miterlimit:4;"
       d="M 12.5 17 L 21.5 17 C 21.777344 17 22 17.222656 22 17.5 L 22 24.5 C 22 24.777344 21.777344 25 21.5 25 L 12.5 25 C 12.222656 25 12 24.777344 12 24.5 L 12 17.5 C 12 17.222656 12.222656 17 12.5 17 Z M 12.5 17 "
       id="path463" />
    <path
       style=" stroke:none;fill-rule:nonzero;fill:rgb(49.803922%,90.196078%,93.72549%);fill-opacity:1;"
       d="M 26.5 17.5 L 35.5 17.5 C 35.777344 17.5 36 17.722656 36 18 L 36 24 C 36 24.277344 35.777344 24.5 35.5 24.5 L 26.5 24.5 C 26.222656 24.5 26 24.277344 26 24 L 26 18 C 26 17.722656 26.222656 17.5 26.5 17.5 Z M 26.5 17.5 "
       id="path465" />
    <path
       style="fill:none;stroke-width:2;stroke-linecap:square;stroke-linejoin:miter;stroke:rgb(21.960784%,21.960784%,21.960784%);stroke-opacity:1;stroke-miterlimit:4;"
       d="M 26.5 17 L 35.5 17 C 35.777344 17 36 17.222656 36 17.5 L 36 24.5 C 36 24.777344 35.777344 25 35.5 25 L 26.5 25 C 26.222656 25 26 24.777344 26 24.5 L 26 17.5 C 26 17.222656 26.222656 17 26.5 17 Z M 26.5 17 "
       id="path467" />
    <path
       style=" stroke:none;fill-rule:nonzero;fill:rgb(21.960784%,21.960784%,21.960784%);fill-opacity:1;"
       d="M 22.5 18 L 25.5 18 C 25.777344 18 26 18.222656 26 18.5 L 26 19.5 C 26 19.777344 25.777344 20 25.5 20 L 22.5 20 C 22.222656 20 22 19.777344 22 19.5 L 22 18.5 C 22 18.222656 22.222656 18 22.5 18 Z M 22.5 18 "
       id="path469" />
  </g>
</svg>

<svg xmlns="http://www.w3.org/2000/svg" width="64" height="64" viewBox="0 0 48 48">
 <g>
  <path d="m 42 24 c 0 8.563 -8.06 15.5 -18 15.5 c -9.941 0 -18 -6.938 -18 -15.5 c 0 -8.559 8.06 -15.5 18 -15.5 c 9.941 0 18 6.941 18 15.5 m 0 0" style="fill:#ffd95d;fill-opacity:1;stroke:none;fill-rule:nonzero"/>
  <path d="m 17.1 28 c 0.57 2.887 3.488 5 6.902 5 c 3.414 -0.004 6.324 -2.117 6.895 -5 l -0.961 0 c -0.426 1.719 -2.953 2.996 -5.934 3 c -2.98 -0.004 -5.508 -1.281 -5.934 -3 m -0.969 0" style="fill:#646464;fill-opacity:1;stroke:none;fill-rule:nonzero"/>
  <path d="m 12.5 17.5 l 9 0 c 0.277 0 0.5 0.223 0.5 0.5 l 0 6 c 0 0.277 -0.223 0.5 -0.5 0.5 l -9 0 c -0.277 0 -0.5 -0.223 -0.5 -0.5 l 0 -6 c 0 -0.277 0.223 -0.5 0.5 -0.5 m 0 0" style="fill:#7fe5ee;fill-opacity:1;stroke:none;fill-rule:nonzero"/>
  <path d="m 12.5 17 l 9 0 c 0.277 0 0.5 0.223 0.5 0.5 l 0 7 c 0 0.277 -0.223 0.5 -0.5 0.5 l -9 0 c -0.277 0 -0.5 -0.223 -0.5 -0.5 l 0 -7 c 0 -0.277 0.223 -0.5 0.5 -0.5 m 0 0" style="stroke-opacity:1;fill:none;stroke-miterlimit:4;stroke:#373737;stroke-linecap:square;stroke-linejoin:miter;stroke-width:2"/>
  <path d="m 26.5 17.5 l 9 0 c 0.277 0 0.5 0.223 0.5 0.5 l 0 6 c 0 0.277 -0.223 0.5 -0.5 0.5 l -9 0 c -0.277 0 -0.5 -0.223 -0.5 -0.5 l 0 -6 c 0 -0.277 0.223 -0.5 0.5 -0.5 m 0 0" style="fill:#7fe5ee;fill-opacity:1;stroke:none;fill-rule:nonzero"/>
  <path d="m 26.5 17 l 9 0 c 0.277 0 0.5 0.223 0.5 0.5 l 0 7 c 0 0.277 -0.223 0.5 -0.5 0.5 l -9 0 c -0.277 0 -0.5 -0.223 -0.5 -0.5 l 0 -7 c 0 -0.277 0.223 -0.5 0.5 -0.5 m 0 0" style="stroke-opacity:1;fill:none;stroke-miterlimit:4;stroke:#373737;stroke-linecap:square;stroke-linejoin:miter;stroke-width:2"/>
  <path d="m 22.5 18 l 3 0 c 0.277 0 0.5 0.223 0.5 0.5 l 0 1 c 0 0.277 -0.223 0.5 -0.5 0.5 l -3 0 c -0.277 0 -0.5 -0.223 -0.5 -0.5 l 0 -1 c 0 -0.277 0.223 -0.5 0.5 -0.5 m 0 0" style="fill:#373737;fill-opacity:1;stroke:none;fill-rule:nonzero"/>
 </g>
</svg>
